src/symbolic/status/display-brightness-low-symbolic.svg

<svg xmlns="http://www.w3.org/2000/svg" width="16" height="16" version="1.1">
 <path style="fill:#444444" d="M 8,5 C 6.34,5 5,6.34 5,8 5,9.66 6.34,11 8,11 Z"/>
 <path style="fill:#444444;opacity:0.3" d="M 8 0.7207 L 5.8105 3 L 3 3 L 3 5.8105 L 0.7207 8 L 3 10.221 L 3 13 L 5.8105 13 L 8 15.279 L 10.221 13 L 13 13 L 13 10.221 L 15.279 8 L 13 6 L 13 3 L 10.221 3 L 8 0.7207 z M 8 4 C 10.21 4 12 5.79 12 8 C 12 10.21 10.21 12 8 12 C 5.79 12 4 10.21 4 8 C 4 5.79 5.79 4 8 4 z"/>
</svg>

<svg xmlns="http://www.w3.org/2000/svg" width="16" height="16"><path d="M8 5C6.34 5 5 6.34 5 8s1.34 3 3 3z" fill="#444"/><path d="M8 .72L5.81 3H3v2.81L.72 8 3 10.221V13h2.81L8 15.279 10.221 13H13v-2.779L15.279 8 13 6V3h-2.779L8 .72zM8 4c2.21 0 4 1.79 4 4s-1.79 4-4 4-4-1.79-4-4 1.79-4 4-4z" fill="#444" opacity=".3"/></svg>
